X: 317
T:Fortuna d'un gran tempo
N: Derived from Jos2712-Fortuna_dun_gran_tempo.krn
C: Josquin des Prez
%%abc-version 2.0
%%abcx-abcm2ps-target-version 5.9.1 (29 Sep 2008)
%%abc-creator hum2abc beta
%%abcx-conversion-date 2019/02/12 16:15:54
%%abc-edited-by Jesse Rodin
%%abc-edited-by Jesse Rodin; Victoria Chang 2011/05/30/
%%abcx-initial-encoding-date 2011/05/30/
%%humdrum-veritas 536398084
%%humdrum-veritas-data 3148094608
%%linebreak <none>
%%barnumbers 0
L: 1/4
M: 2/1
Q: 1/2=120
V: 1 clef=treble
V: 2 clef=treble-8
V: 3 clef=bass
K: Bb
[V:1] z4G4 | 
[V:2] z8 | 
[V:3] z8 | 
[V:1] G6F2 | 
[V:2] z8 | 
[V:3] z8 | 
[V:1] =E4D4 | 
[V:2] z8 | 
[V:3] z8 | 
[V:1] CD=EFG2A=B | 
[V:2] z4c4 | 
[V:3] z8 | 
[V:1] c3=BA2G2- | 
[V:2] c6B2 | 
[V:3] z8 | 
[V:1] GCF4=E2 | 
[V:2] A4G4 | 
[V:3] z8 | 
[V:1] F8 | 
[V:2] FGABc2d=e | 
[V:3] z4F,4 | 
[V:1] z4F4- | 
[V:2] f3=ed2c2- | 
[V:3] F,6E,2 | 
[V:1] F2EDE4 | 
[V:2] cFB4A2 | 
[V:3] D,4C,4 | 
[V:1] D4z2D2 | 
[V:2] B8 | 
[V:3] B,,4z2B,,2 | 
[V:1] E3DE2F2 | 
[V:2] z8 | 
[V:3] C,D,E,F,G,2A,2 | 
[V:1] D8 | 
[V:2] z4z2G2 | 
[V:3] B,2C4=B,2 | 
[V:1] C2=E2F2G2- | 
[V:2] A3GA2B2 | 
[V:3] C4z4 | 
[V:1] GFF4=E2 | 
[V:2] G8 | 
[V:3] z4z2C,2 | 
[V:1] F4z4 | 
[V:2] F2A2B2c2- | 
[V:3] D,3C,D,2E,2 | 
[V:1] z8 | 
[V:2] cBB4A2 | 
[V:3] C,8 | 
[V:1] D4D2D2 | 
[V:2] B4z2B2- | 
[V:3] B,,8- | 
[V:1] D6=E2 | 
[V:2] BAF2G3F | 
[V:3] B,,8 | 
[V:1] F3FF2F2 | 
[V:2] D=EFGABcd | 
[V:3] z8 | 
[V:1] =E4D4 | 
[V:2] G2c4=B2 | 
[V:3] z8 | 
[V:1] CD=EFG2A2- | 
[V:2] c4z2c2- | 
[V:3] C,6C,2 | 
[V:1] AGG4^F2 | 
[V:2] cBAGA4 | 
[V:3] C,6D,2 | 
[V:1] G4z2G2- | 
[V:2] G6G2 | 
[V:3] E,3E,E,2E,2- | 
[V:1] GFEDE4 | 
[V:2] G6A2 | 
[V:3] E,D,C,B,,C,4 | 
[V:1] z2D3=EFG | 
[V:2] B3BB2B2 | 
[V:3] B,,8 | 
[V:1] C2F4=E2 | 
[V:2] A4G4 | 
[V:3] z4C,4 | 
[V:1] F8 | 
[V:2] F4z2F2 | 
[V:3] D,3E,F,3G,/A,/ | 
[V:1] z8 | 
[V:2] G6F2 | 
[V:3] B,3CDED2- | 
[V:1] z8 | 
[V:2] =E4D4 | 
[V:3] DCC4=B,2 | 
[V:1] z4G4 | 
[V:2] C3B,CD=EF | 
[V:3] C8 | 
[V:1] G6F2 | 
[V:2] GFGABcd2- | 
[V:3] z8 | 
[V:1] =E4D4 | 
[V:2] dcc4=B2 | 
[V:3] z8 | 
[V:1] CD=EFG2A=B | 
[V:2] c4z2c2 | 
[V:3] C,8- | 
[V:1] c3=BA2G2- | 
[V:2] c6B2 | 
[V:3] C,8- | 
[V:1] GCF4=E2 | 
[V:2] A4G4 | 
[V:3] C,8 | 
[V:1] F8 | 
[V:2] FGABc2d=e | 
[V:3] z4F,4 | 
[V:1] z4F4- | 
[V:2] f3=ed2c2- | 
[V:3] F,6E,2 | 
[V:1] F2EDE4 | 
[V:2] cFB4A2 | 
[V:3] D,4C,4 | 
[V:1] D4z2D2 | 
[V:2] B8 | 
[V:3] B,,4z2B,,2 | 
[V:1] E3DE2F2 | 
[V:2] z8 | 
[V:3] C,D,E,F,G,2A,2 | 
[V:1] D8 | 
[V:2] z4z2G2 | 
[V:3] B,2C4=B,2 | 
[V:1] C2=E2F2G2- | 
[V:2] A3GA2B2 | 
[V:3] C4z4 | 
[V:1] GFF4=E2 | 
[V:2] G8 | 
[V:3] z4z2C,2 | 
[V:1] F6G2 | 
[V:2] F4z2G2 | 
[V:3] D,3C,D,2E,2 | 
[V:1] =E2A4G2- | 
[V:2] A3GA2B2 | 
[V:3] C,2F,4E,D, | 
[V:1] GFF4=E2 | 
[V:2] G8 | 
[V:3] E,3F,C,4 | 
[V:1] F8 |]  
[V:2] F8 |]  
[V:3] F,8 |]  



